X: 30545
T: On The Road Again
R: reel
M: 4/4
K: Aminor
|:C|A,DDC DCDE|FGAB cdeg|edcA dcAG|cAGE {F}EDDC|
A,DDC DCDE|FGAB cdeg|edcA dcAG|cAGE D3:|
|:D|dAd[d2^f2] [d^f]ed|cABc2 cdc|AGEG cGEC|DFED ECA,G,|
dAd[d2^f2] [d^f]ed|cAB c2 deg|edcA dcAG|cAGE D3:|

